X: 21
T:Little Liza Jane
M:4/4
R:reel
Q:1/2=120
L:1/4
K:A
(3e/f/g/ | "A"ae e3/e/ |"A" f/e/c/B/ A (3e/f/g/ |"A" af ec | "F#m"f3/g/ f (3e/f/g/ | "A"ae ee |
"D"f/e/c/B/ "A"A2 | "A"c/B/A/F/ "E7"EF | "A"A2A :: G/A/|"A"B/cB/ c3/A/ |"A" BA2A | "A"B/cB/ c/B/A |
"F#m"F3E | "D"F/A/-A B3/A/ | "A"B/c/-c B3/A/ | "A"c/B/A/F/ "E7"EF | "A"A2A :|
